app/images/icon/visa.svg

<svg width="93" height="29" viewBox="0 0 93 29" fill="none" xmlns="http://www.w3.org/2000/svg">
<path d="M37.1088 0.473877L32.3987 28.0548H39.9317L44.6456 0.473877H37.1088Z" fill="white"/>
<path d="M26.0828 0.504701L18.7047 19.3141L17.9181 16.474C16.463 13.052 12.3323 8.13751 7.48273 5.04031L14.2291 28.0413L22.2001 28.0277L34.0634 0.498901L26.0828 0.504701Z" fill="white"/>
<path d="M15.0582 2.47865C14.6204 0.798582 13.3513 0.297848 11.7761 0.237915H0.096875L0 0.786982C9.08881 2.98712 15.1028 8.28832 17.5983 14.6625L15.0582 2.47865Z" fill="white"/>
<path d="M59.9133 5.76133C62.3778 5.72267 64.1642 6.26013 65.5514 6.81693L66.2315 7.13593L67.2506 1.15806C65.7587 0.599331 63.4202 0 60.5023 0C53.0584 0 47.8117 3.741 47.771 9.10213C47.7225 13.0635 51.5084 15.2753 54.3682 16.5957C57.3035 17.9491 58.2877 18.8094 58.2742 20.0177C58.2509 21.8641 55.9337 22.7109 53.7695 22.7109C50.7528 22.7109 49.1505 22.2952 46.6763 21.2667L45.7056 20.8259L44.6458 26.999C46.4089 27.7704 49.662 28.4335 53.039 28.4683C60.9576 28.4683 66.1036 24.7718 66.1578 19.0433C66.1908 15.9094 64.1816 13.5179 59.828 11.5555C57.193 10.2757 55.581 9.425 55.5965 8.13353C55.5965 6.98707 56.9644 5.76133 59.9133 5.76133Z" fill="white"/>
<path d="M86.583 0.504578H80.7628C78.9551 0.504578 77.6105 0.995644 76.8161 2.79365L65.6309 28.0701H73.5417C73.5417 28.0701 74.8321 24.6713 75.1246 23.9269C75.9907 23.9269 83.6768 23.9385 84.7715 23.9385C84.9962 24.9013 85.6898 28.0701 85.6898 28.0701H92.6784L86.583 0.504578ZM77.2927 18.2816C77.9127 16.6982 80.2939 10.5734 80.2939 10.5734C80.2532 10.6488 80.9081 8.97838 81.2975 7.94018L81.8051 10.3182C81.8051 10.3182 83.2486 16.9031 83.5508 18.2816H77.2927Z" fill="white"/>
</svg>

<svg width="93" height="29" fill="none" xmlns="http://www.w3.org/2000/svg"><path d="M37.109.474l-4.71 27.58h7.533L44.646.475h-7.537zM26.083.505l-7.378 18.81-.787-2.841C16.463 13.052 12.332 8.138 7.483 5.04l6.746 23.001 7.971-.013L34.063.498l-7.98.007z" fill="#fff"/><path d="M15.058 2.479C14.62.799 13.351.298 11.776.238H.096L0 .787c9.089 2.2 15.103 7.501 17.598 13.875L15.058 2.48zm44.855 3.282c2.465-.038 4.251.5 5.638 1.056l.68.319 1.02-5.978C65.759.6 63.42 0 60.502 0c-7.444 0-12.69 3.741-12.731 9.102-.049 3.961 3.737 6.173 6.597 7.494 2.935 1.353 3.92 2.213 3.906 3.422-.023 1.846-2.34 2.693-4.505 2.693-3.016 0-4.618-.416-7.093-1.444l-.97-.441-1.06 6.173c1.763.771 5.016 1.434 8.393 1.47 7.919 0 13.065-3.697 13.119-9.426.033-3.134-1.976-5.525-6.33-7.487-2.635-1.28-4.247-2.131-4.232-3.422 0-1.147 1.368-2.373 4.317-2.373zM86.583.505h-5.82c-1.808 0-3.153.49-3.947 2.289L65.631 28.07h7.91s1.291-3.399 1.584-4.143c.866 0 8.552.012 9.647.012.224.962.918 4.131.918 4.131h6.988L86.583.505zm-9.29 17.777c.62-1.584 3-7.709 3-7.709-.04.076.615-1.595 1.004-2.633l.508 2.378 1.746 7.964h-6.258z" fill="#fff"/></svg>
